X: 276
T: the Green Woods of Truigha   #2
R: air
%S: s:2 b:8(4+4)
B: O'Neill's 1850 # 276
Z: 1997 by John Chambers <jc@trillian.mit.edu>
N: Compacted via repeats and multiple endings [JC]
N: Compacted by using labels and play order [JC]
P: Play AA BA
Q: "Slow"
M: 3/4
L: 1/8
K: G
%%slurgraces 1
%%graceslurs 1
D \
"^A"|: G2 Bd  (c/B/)(A/G/) | B2 g>f (e/d/)(c/B/) | A>c BG {B}A>G | G4 [1 z2 :|2 "^fine"zd |]
"^B"[|  g>g fe a>g | f>e d2 g>f | {f}e3 d Bd | ef ga H"^->A2"b2 |]
